Obsidian-SemiLight/actions/22s/black_sum.svg

<svg viewBox="0 0 22 22" xmlns="http://www.w3.org/2000/svg"><path d="m3 3 4 8-4 8h.5.5.0625.4375 14.5v-3-1h-1v3h-4-1-1-6.34375-.71875l3.3125-7-3.4375-7h.90625 6.28125 4 2v2 1h1v-1-3h-14.5-.4375-.0625-.5z" fill="#4d4d4d"/></svg>

<svg xmlns="http://www.w3.org/2000/svg" viewBox="0 0 22 22">
  <defs id="defs3051">
    <style type="text/css" id="current-color-scheme">
      .ColorScheme-Text {
        color:#4d4d4d;
      }
      </style>
  </defs>
 <path 
     style="fill:currentColor;fill-opacity:1;stroke:none" 
     d="M 3 3 L 7 11 L 3 19 L 3.5 19 L 4 19 L 4.0625 19 L 4.5 19 L 19 19 L 19 16 L 19 15 L 18 15 L 18 18 L 14 18 L 13 18 L 12 18 L 5.65625 18 L 4.9375 18 L 8.25 11 L 4.8125 4 L 5.71875 4 L 12 4 L 16 4 L 18 4 L 18 6 L 18 7 L 19 7 L 19 6 L 19 3 L 4.5 3 L 4.0625 3 L 4 3 L 3.5 3 L 3 3 z "
	 class="ColorScheme-Text"
     />
</svg>
